X:395
T:Blanchard’s Hornpipe. RH.395
T:Fisher’s Hornpipe,aka. RH.395
R:.hornpipe
S:Rev.R.Harrison’s MS,c1815,Cumbria
N:Key signature in MS is D
O:England
A:Temple Sowerby,Cumbria
H:see #434
Z:vmp.Simon Wilson. Review PJH, 2008.
M:C
L:1/8
Q:2/4=95
K:G
gdBd cedc|BdBd cedc|BGBG cAcA|dBAG GFED|!
gdBd cedc|BdBd cedc|Bgec’ bgaf|g2g2 g2z2:|!
|:afdf afc’a|bgdf bgd’b|afdf afd’b|agfe d4|!
ecGc ecge|dBGB dBgd|dBge dBcA|G2G2 G2z2:|

